X: 1
T: Per Spelmann
O: Norway
Z: John Chambers <jc@trillian.mit.edu>
M: 3/4
L: 1/4
K: D
A | "A7"AEG | "D"FDd | "A7"cdB | "D"A2A | "A7"AEG | "D"FDd |
w: Per Spel-man han had-de ei ein-as-te ku, Per Spel-man han had-de ei
| "E7"cdB | "A"A2A |: "A7"A>Bc | "D"dAF | "A7"F>GE |1 "D"A2A :|2 "D"D2A ||
w: ein-as-te ku, han byt-te bort ku-a fekk fe-le i-gjen, han \-gjen. Du
[| "D"d2A | F2E | "D"D/D/DF | D/D/DF | "A7"E2C | "D"D2 |]
w: god-a gam-la fi-o-lin, du fi-o-lin, du fe-la min.

